!!!COM: Bach, Johann Sebastian
!!!CDT: 1685/3//-1750/7/28/
!!!OTL@@DE: Erstanden ist der heil'ge Christ
!!!AGN: 4-Part Chorale
!!!SCT: BH 176
!!!SCT: BWV 306
**harm	**root	**kern	**kern	**kern	**kern
!	!	!bass	!tenor	!alto	!soprno
*	*Iorgan	*Iorgan	*Iorgan	*Iorgan	*Iorgan
*M3/4	*M3/4	*M3/4	*M3/4	*M3/4	*M3/4
*MM60	*MM60	*MM60	*MM60	*MM60	*MM60
*k[f#c#g#]	*k[f#c#g#]	*k[f#c#g#]	*k[f#c#g#]	*k[f#c#g#]	*k[f#c#g#]
*A:	*A:	*A:	*A:	*A:	*A:
I	4FF	4AA	4c#	4e	4a
=1	=1	=1	=1	=1	=1
I	4.FF	4.A	8c#	4e	4.a
.	.	.	8d	.	.
.	.	.	8c#	8f#	.
vii	8EE	8G#	8B	8g#	8b
vi	4DD	4F#	4A	[4a	8cc#
.	.	.	.	.	8dd
=2	=2	=2	=2	=2	=2
V	2CC	4.E	2B	4a]	2ee
.	.	.	.	8g#	.
.	.	8F#	.	8a	.
Vb	4CC	8G#	4e	[4b	4b
.	.	8E	.	.	.
=3	=3	=3	=3	=3	=3
I	2FF	4.A	2e	8b]	2cc#
.	.	.	.	8g#	.
.	.	.	.	[2a	.
.	.	8G#	.	.	.
viib/V	4BB	4F#	4f#	.	4dd#
=4	=4	=4	=4	=4	=4
V;	2CC;	2E;	2B;	4a]	2ee;
.	.	.	.	4g#;	.
V7b	4CC	4G#	4e	[4b	4ddy
=5	=5	=5	=5	=5	=5
I	4FF	4.A	8e	4b]	4.cc#
.	.	.	8c#	.	.
vib	4DD	.	2f#	2a	.
.	.	8G#	.	.	8b
vi	4DD	4F#	.	.	8cc#
.	.	.	.	.	8dd
=6	=6	=6	=6	=6	=6
Vb	4CC	4.G#	8e	8b	2ee
.	.	.	8f#	8a	.
Vb	8CC	.	4g#	8b	.
vii7/ii	8FF#	8A#	.	[8cc#	.
ii	4GG	4B	4f#	8cc#]	4dd
.	.	.	.	[8b	.
=7	=7	=7	=7	=7	=7
vi	4DD	4.F#	4f#	8b]	2cc#
.	.	.	.	16a	.
.	.	.	.	16g#	.
vi	4DD	.	4c#	[4a	.
.	.	8E	.	.	.
v7c/III	4EE	4D	4F#	8a]	4b
.	.	.	.	16g#	.
.	.	.	.	16f#	.
!!linebreak: 2
=8	=8	=8	=8	=8	=8
III;	2AA;	2C#;	2G#;	2e#;	2cc#;
vi	4DD	4F#	4A	4f#	4cc#
=9	=9	=9	=9	=9	=9
iii	4AA	8c#	4c#	4.g#	2ee
.	.	8C#	.	.	.
iii	4AA	8c#	[2e	.	.
.	.	8B	.	8a	.
V7b	4CC	8A	.	[4b	4dd
.	.	8G#	.	.	.
=10	=10	=10	=10	=10	=10
I	4FF	8A	8e]	4b]	2cc#
.	.	8AA	8c#	.	.
vib	4DD	8A	8f#	4a	.
.	.	8G#	8e	.	.
viioD7/vi	4CC#	8F#	4d	[4g#	4b
.	.	8E#	.	.	.
=11	=11	=11	=11	=11	=11
vi	4DD	4F#	8c#	4g#]	2a
.	.	.	8A	.	.
IV	4BB-	4D	8d	4f#	.
.	.	.	8c#	.	.
V	4CC	4E	4B	8e	4g#
.	.	.	.	8d	.
=12	=12	=12	=12	=12	=12
vi;	2DD;	2F#;	2A;	2c#;	2a;
vi	4DD	8F#	4c#	4f#	4a
.	.	8E	.	.	.
=13	=13	=13	=13	=13	=13
iib	4GG	4.D	4B	4f#	8b
.	.	.	.	.	8a
V7d	8CC	.	4e	8g#	8b
Ib	8FF	8C#	.	8a	8cc#
!!!ONB1: in beat 3 of measure 13, the tenor pitch is 'd' in
!!!ONB2: Breitkof & Haertel editions, but is 'B-' in the
!!!ONB3: Bach Compendium index incipit.
ii	4GG	4BB	8d	8f#	4dd
.	.	.	8B	8g#	.
=14	=14	=14	=14	=14	=14
I	4FF	8AA	8c#	2a	2cc#
.	.	8BB	8d	.	.
Ib	4FF	8C#	[4e	.	.
.	.	8D	.	.	.
V	4CC	4E	8e]	[4g#	4b
.	.	.	8d	.	.
=15	=15	=15	=15	=15	=15
vi	4DD	8F#	4c#	4g#]	2a
.	.	8E	.	.	.
IV	4BB-	4D	8d	4f#	.
.	.	.	8c#	.	.
V7	4CC	4E	8B	4e	4g#
.	.	.	8d	.	.
=16	=16	=16	=16	=16	=16
I;	2FF;	2AA;	2c#;	2e;	2a;
==	==	==	==	==	==
*-	*-	*-	*-	*-	*-
!!chor2scor: -l 2 -s 0.6 -o %b.pmx
!!!YEC: Copyright 1994, David Huron
!!!YEC: Changes/Additions 2001 by Craig Stuart Sapp
!!!YEN: United States of America
!!!SMA: 371 Bach Chorales, edited by Ludwig Erk, C.F. Peters
!!!PDT: 1850, 1865
!!!ONB: Harmony and Root analysis done manually
